o5 l8
bbabr>drdeerfrerd<
bbabr>drdeerfrerd<
bbabr>drdeerfrerd<
bbabr>drdeerfrerd<

bbabr>drdeerfrerd<
bbabr>drdeerfrerd<
bbabr>drdeerfrerd<
bbabr>drdeerfrerd<

r1r1
r1r1
r1r1
r1r1

bbabr>drdeerfrerd<
bbabr>drdeerfrerd<

r1r1
r1r1
r1r1
r1r1
l16
br>dd<br>dr<br>dd<br>dr
erf+f+erf+rerf+f+erf+r<
br>dd<br>dr<br>dd<br>dr<
f+raaf+rarf+raaf+rar
br>dd<br>dr<br>dd<br>dr
erf+f+erf+rerf+f+erf+r<
br>dd<br>dr<br>dd<br>dr<
f+raaf+rarb4r4
l8

d1e1a1a1
d1e1a1a1
d1e1a1a1
d1e1a2a2a4a4a8a8a8a8

l16
drdrdrdrdrdrdrdrerererererererer
arararararararararararararararar
drdrdrdrdrdrdrdrerererererererer
arararararararararararararararar
drdrdrdrdrdrdrdrerererererererer
arararararararararararararararar
drdrdrdrdrdrdrdrerererererererer
arararararararararararararararar

drdrdrdrdrdrdrdrererererererererararararararararerererererererer
drdrdrdrdrdrdrdrererererererererararararararararerererererererer

l8
>
bbabr>drdeerfrerd<
bbabr>drdeerfrerd<
bbabr>drdeerfrerd<
bbabr>drdeerfrerd<
r2r4r8b4rrrrr
